assets/icons/tablet-filled.svg

<?xml version="1.0" encoding="UTF-8" standalone="no"?>
<svg
   viewBox="0 0 24 24"
   height="24"
   width="24"
   version="1.1"
   id="svg8"
   sodipodi:docname="tablet-filled.svg"
   inkscape:version="1.2 (1:1.2.1+202207142221+cd75a1ee6d)"
   xmlns:inkscape="http://www.inkscape.org/namespaces/inkscape"
   xmlns:sodipodi="http://sodipodi.sourceforge.net/DTD/sodipodi-0.dtd"
   xmlns="http://www.w3.org/2000/svg"
   xmlns:svg="http://www.w3.org/2000/svg">
  <defs
     id="defs12" />
  <sodipodi:namedview
     id="namedview10"
     pagecolor="#ffffff"
     bordercolor="#666666"
     borderopacity="1.0"
     inkscape:pageshadow="2"
     inkscape:pageopacity="0.0"
     inkscape:pagecheckerboard="0"
     showgrid="true"
     inkscape:zoom="28"
     inkscape:cx="8.75"
     inkscape:cy="9.5357143"
     inkscape:window-width="1920"
     inkscape:window-height="1043"
     inkscape:window-x="0"
     inkscape:window-y="0"
     inkscape:window-maximized="1"
     inkscape:current-layer="svg8"
     inkscape:showpageshadow="2"
     inkscape:deskcolor="#d1d1d1">
    <inkscape:grid
       type="xygrid"
       id="grid6" />
  </sodipodi:namedview>
  <path
     id="path347"
     style="color:#000000;fill:#808080;fill-opacity:1"
     d="M 4.5 5 C 3.958335 5 3.5160812 5.0636 3.140625 5.2304688 C 2.7651688 5.3973384 2.472456 5.6879014 2.3027344 6.0273438 C 1.963293 6.7062274 2 7.500003 2 8.5 L 2 15.5 C 2 15.75 1.9981 15.987242 2 16.212891 C 2.0056 16.889834 2.0481508 17.463495 2.3027344 17.972656 C 2.472456 18.312098 2.7651688 18.602662 3.140625 18.769531 C 3.5160812 18.936401 3.958335 19 4.5 19 L 19.5 19 C 20.041664 19 20.483918 18.9364 20.859375 18.769531 C 21.234832 18.602662 21.527544 18.312098 21.697266 17.972656 C 22.036706 17.293773 22 16.499997 22 15.5 L 22 8.5 C 22 7.500003 22.036708 6.7062274 21.697266 6.0273438 C 21.527544 5.6879014 21.234832 5.3973384 20.859375 5.2304688 C 20.483918 5.063599 20.041664 5 19.5 5 L 4.5 5 z M 5 6 L 19 6 L 19 18 L 5 18 L 5 6 z M 6 7 L 6 17 L 18 17 L 18 7 L 6 7 z " />
</svg>

<svg height="24" width="24" xmlns="http://www.w3.org/2000/svg"><path style="color:#000;fill:gray;fill-opacity:1" d="M4.5 5c-.542 0-.984.064-1.36.23a1.72 1.72 0 0 0-.837.797C1.963 6.707 2 7.5 2 8.5v7c0 .25-.002.487 0 .713.006.677.048 1.25.303 1.76.17.34.462.63.838.797.375.166.817.23 1.359.23h15c.542 0 .984-.064 1.36-.23a1.72 1.72 0 0 0 .837-.797c.34-.68.303-1.473.303-2.473v-7c0-1 .037-1.794-.303-2.473a1.72 1.72 0 0 0-.838-.797C20.484 5.064 20.042 5 19.5 5h-15zM5 6h14v12H5V6zm1 1v10h12V7H6z"/></svg>
